icons/circle/48/xsensors.svg

<svg version="1.1" viewBox="0 0 48 48" xmlns="http://www.w3.org/2000/svg">
 <defs>
  <linearGradient id="linearGradient3764" x1="1" x2="47" gradientTransform="rotate(-90 24 24)" gradientUnits="userSpaceOnUse">
   <stop style="stop-color:#436769" offset="0"/>
   <stop style="stop-color:#4b7376" offset="1"/>
  </linearGradient>
 </defs>
 <path d="m36.31 5c5.859 4.062 9.688 10.831 9.688 18.5 0 12.426-10.07 22.5-22.5 22.5-7.669 0-14.438-3.828-18.5-9.688 1.037 1.822 2.306 3.499 3.781 4.969 4.085 3.712 9.514 5.969 15.469 5.969 12.703 0 23-10.298 23-23 0-5.954-2.256-11.384-5.969-15.469-1.469-1.475-3.147-2.744-4.969-3.781zm4.969 3.781c3.854 4.113 6.219 9.637 6.219 15.719 0 12.703-10.297 23-23 23-6.081 0-11.606-2.364-15.719-6.219 4.16 4.144 9.883 6.719 16.219 6.719 12.703 0 23-10.298 23-23 0-6.335-2.575-12.06-6.719-16.219z" style="opacity:.05"/>
 <path d="m41.28 8.781c3.712 4.085 5.969 9.514 5.969 15.469 0 12.703-10.297 23-23 23-5.954 0-11.384-2.256-15.469-5.969 4.113 3.854 9.637 6.219 15.719 6.219 12.703 0 23-10.298 23-23 0-6.081-2.364-11.606-6.219-15.719z" style="opacity:.1"/>
 <path d="m31.25 2.375c8.615 3.154 14.75 11.417 14.75 21.13 0 12.426-10.07 22.5-22.5 22.5-9.708 0-17.971-6.135-21.12-14.75a23 23 0 0 0 44.875-7 23 23 0 0 0-16-21.875z" style="opacity:.2"/>
 <path d="m24 1c12.703 0 23 10.297 23 23s-10.297 23-23 23-23-10.297-23-23 10.297-23 23-23z" style="fill:url(#linearGradient3764)"/>
 <path d="m25 10a15 15 0 0 0-15 15 15 15 0 0 0 15 15 15 15 0 0 0 15-15 15 15 0 0 0-15-15m0 2a13 13 0 0 1 8.129 2.871l-2.135 2.135a10 10 0 0 0-5.994-2.006 10 10 0 0 0-5.99 2.01l-2.145-2.145a13 13 0 0 1 8.135-2.865m10.135 4.865a13 13 0 0 1 2.865 8.135 13 13 0 0 1-2.87 8.13l-2.136-2.138a10 10 0 0 0 2.006-5.992 10 10 0 0 0-2.008-5.99l2.143-2.143zm-20.264 6e-3 2.135 2.135a10 10 0 0 0-2.006 5.994 10 10 0 0 0 2.01 5.99l-2.145 2.145a13 13 0 0 1-2.865-8.135 13 13 0 0 1 2.871-8.129m10.129 0.129a8 8 0 0 1 4.566 1.434l-2.18 2.18a5 5 0 0 0-2.386-0.614 5 5 0 0 0-2.391 0.609l-2.17-2.17a8 8 0 0 1 4.561-1.439m-6.566 3.434 2.18 2.18a5 5 0 0 0-0.614 2.386 5 5 0 0 0 0.609 2.391l-2.171 2.17a8 8 0 0 1-1.438-4.561 8 8 0 0 1 1.434-4.566m13.13 6e-3a8 8 0 0 1 1.436 4.56 8 8 0 0 1-1.434 4.566l-2.179-2.179a5 5 0 0 0 0.613-2.387 5 5 0 0 0-0.609-2.391l2.17-2.17zm-6.564 2.56 1.998 2-1.998 2-2-2 2-2m-2.387 6.387a5 5 0 0 0 2.387 0.613 5 5 0 0 0 2.391-0.609l2.172 2.17a8 8 0 0 1-4.563 1.439 8 8 0 0 1-4.566-1.434l2.18-2.18zm8.379 3.604 2.145 2.145a13 13 0 0 1-8.137 2.864 13 13 0 0 1-8.131-2.87l2.137-2.137a10 10 0 0 0 5.994 2.007 10 10 0 0 0 5.992-2.01" style="opacity:.1"/>
 <path d="m24 9c-8.2843 0-15 6.7157-15 15s6.7157 15 15 15 15-6.7157 15-15-6.7157-15-15-15zm0 2c7.1797 0 13 5.8203 13 13s-5.8203 13-13 13-13-5.8203-13-13 5.8203-13 13-13zm0 3c-5.5228 0-10 4.4772-10 10s4.4772 10 10 10 10-4.4772 10-10-4.4772-10-10-10zm0 2c4.4183 0 8 3.5817 8 8s-3.5817 8-8 8-8-3.5817-8-8 3.5817-8 8-8zm0 3c-2.7614 0-5 2.2386-5 5s2.2386 5 5 5 5-2.2386 5-5-2.2386-5-5-5zm2 3v4h-4v-4z" style="fill:#f9f9f9"/>
 <path d="m40.03 7.531c3.712 4.084 5.969 9.514 5.969 15.469 0 12.703-10.297 23-23 23-5.954 0-11.384-2.256-15.469-5.969 4.178 4.291 10.01 6.969 16.469 6.969 12.703 0 23-10.298 23-23 0-6.462-2.677-12.291-6.969-16.469z" style="opacity:.1"/>
 <path d="m14.746 13.33c-0.361 0-0.723 0.139-1 0.416-0.554 0.554-0.554 1.446 0 2l8.254 8.254 2-2-8.254-8.254c-0.277-0.277-0.639-0.416-1-0.416zm11.252 10.67-1.998 2 8.254 8.252c0.554 0.554 1.446 0.554 2 0s0.554-1.446 0-2z" style="fill:#f95357"/>
 <path d="m33.25 13.33c-0.361 0-0.723 0.139-1 0.416l-8.254 8.254 2 2 8.254-8.254c0.554-0.554 0.554-1.446 0-2-0.277-0.277-0.639-0.416-1-0.416zm-11.254 10.67-8.254 8.252c-0.554 0.554-0.554 1.446 0 2s1.446 0.554 2 0l8.254-8.252" style="fill:#45da26"/>
</svg>

<svg xmlns="http://www.w3.org/2000/svg" viewBox="0 0 48 48">
 <defs>
  <linearGradient id="linearGradient3764" x1="1" x2="47" gradientUnits="userSpaceOnUse" gradientTransform="matrix(0,-1,1,0,-1.5e-6,47.999998)">
   <stop style="stop-color:#436769;stop-opacity:1"/>
   <stop offset="1" style="stop-color:#4b7376;stop-opacity:1"/>
  </linearGradient>
 </defs>
 <g>
  <path d="m 36.31 5 c 5.859 4.062 9.688 10.831 9.688 18.5 c 0 12.426 -10.07 22.5 -22.5 22.5 c -7.669 0 -14.438 -3.828 -18.5 -9.688 c 1.037 1.822 2.306 3.499 3.781 4.969 c 4.085 3.712 9.514 5.969 15.469 5.969 c 12.703 0 23 -10.298 23 -23 c 0 -5.954 -2.256 -11.384 -5.969 -15.469 c -1.469 -1.475 -3.147 -2.744 -4.969 -3.781 z m 4.969 3.781 c 3.854 4.113 6.219 9.637 6.219 15.719 c 0 12.703 -10.297 23 -23 23 c -6.081 0 -11.606 -2.364 -15.719 -6.219 c 4.16 4.144 9.883 6.719 16.219 6.719 c 12.703 0 23 -10.298 23 -23 c 0 -6.335 -2.575 -12.06 -6.719 -16.219 z" style="opacity:0.05"/>
  <path d="m 41.28 8.781 c 3.712 4.085 5.969 9.514 5.969 15.469 c 0 12.703 -10.297 23 -23 23 c -5.954 0 -11.384 -2.256 -15.469 -5.969 c 4.113 3.854 9.637 6.219 15.719 6.219 c 12.703 0 23 -10.298 23 -23 c 0 -6.081 -2.364 -11.606 -6.219 -15.719 z" style="opacity:0.1"/>
  <path d="m 31.25 2.375 c 8.615 3.154 14.75 11.417 14.75 21.13 c 0 12.426 -10.07 22.5 -22.5 22.5 c -9.708 0 -17.971 -6.135 -21.12 -14.75 a 23 23 0 0 0 44.875 -7 a 23 23 0 0 0 -16 -21.875 z" style="opacity:0.2"/>
 </g>
 <g>
  <path d="m 24 1 c 12.703 0 23 10.297 23 23 c 0 12.703 -10.297 23 -23 23 -12.703 0 -23 -10.297 -23 -23 0 -12.703 10.297 -23 23 -23 z" style="fill:url(#linearGradient3764);fill-opacity:1"/>
 </g>
 <path d="M 25 10 A 15 15 0 0 0 10 25 15 15 0 0 0 25 40 15 15 0 0 0 40 25 15 15 0 0 0 25 10 m 0 2 a 13 13 0 0 1 8.129 2.871 l -2.135 2.135 A 10 10 0 0 0 25 15 10 10 0 0 0 19.01 17.01 L 16.865 14.865 A 13 13 0 0 1 25 12 m 10.135 4.865 A 13 13 0 0 1 38 25 13 13 0 0 1 35.13 33.13 L 32.994 30.992 A 10 10 0 0 0 35 25 10 10 0 0 0 32.992 19.01 l 2.143 -2.143 z m -20.264 0.006 2.135 2.135 A 10 10 0 0 0 15 25 a 10 10 0 0 0 2.01 5.99 l -2.145 2.145 A 13 13 0 0 1 12 25 13 13 0 0 1 14.871 16.871 M 25 17 a 8 8 0 0 1 4.566 1.434 l -2.18 2.18 A 5 5 0 0 0 25 20 5 5 0 0 0 22.609 20.609 L 20.439 18.439 A 8 8 0 0 1 25 17 m -6.566 3.434 2.18 2.18 A 5 5 0 0 0 20 25 5 5 0 0 0 20.609 27.391 L 18.438 29.561 A 8 8 0 0 1 17 25 8 8 0 0 1 18.434 20.434 m 13.13 0.006 A 8 8 0 0 1 33 25 8 8 0 0 1 31.566 29.566 L 29.387 27.387 A 5 5 0 0 0 30 25 5 5 0 0 0 29.391 22.609 l 2.17 -2.17 z M 25 23 26.998 25 25 27 23 25 25 23 m -2.387 6.387 A 5 5 0 0 0 25 30 5 5 0 0 0 27.391 29.391 L 29.563 31.561 A 8 8 0 0 1 25 33 8 8 0 0 1 20.434 31.566 l 2.18 -2.18 z m 8.379 3.604 2.145 2.145 A 13 13 0 0 1 25 38 13 13 0 0 1 16.869 35.13 l 2.137 -2.137 A 10 10 0 0 0 25 35 10 10 0 0 0 30.992 32.99" style="fill:#000;opacity:0.1;fill-opacity:1;stroke:none"/>
 <path d="M 24 9 A 15 15 0 0 0 9 24 A 15 15 0 0 0 24 39 A 15 15 0 0 0 39 24 A 15 15 0 0 0 24 9 z M 24 11 A 13 13 0 0 1 37 24 A 13 13 0 0 1 24 37 A 13 13 0 0 1 11 24 A 13 13 0 0 1 24 11 z M 24 14 A 10 10 0 0 0 14 24 A 10 10 0 0 0 24 34 A 10 10 0 0 0 34 24 A 10 10 0 0 0 24 14 z M 24 16 A 8 8 0 0 1 32 24 A 8 8 0 0 1 24 32 A 8 8 0 0 1 16 24 A 8 8 0 0 1 24 16 z M 24 19 A 5 5 0 0 0 19 24 A 5 5 0 0 0 24 29 A 5 5 0 0 0 29 24 A 5 5 0 0 0 24 19 z M 24 22 L 26 24 L 24 26 L 22 24 L 24 22 z" style="fill:#f9f9f9;opacity:1;fill-opacity:1;stroke:none"/>
 <g>
  <g>
   <!-- color: #4b7376 -->
  </g>
 </g>
 <g>
  <path d="m 40.03 7.531 c 3.712 4.084 5.969 9.514 5.969 15.469 0 12.703 -10.297 23 -23 23 c -5.954 0 -11.384 -2.256 -15.469 -5.969 4.178 4.291 10.01 6.969 16.469 6.969 c 12.703 0 23 -10.298 23 -23 0 -6.462 -2.677 -12.291 -6.969 -16.469 z" style="opacity:0.1"/>
 </g>
 <path d="m 14.746 13.33 c -0.361 0 -0.723 0.139 -1 0.416 -0.554 0.554 -0.554 1.446 0 2 l 8.254 8.254 2 -2 -8.254 -8.254 c -0.277 -0.277 -0.639 -0.416 -1 -0.416 z m 11.252 10.67 -1.998 2 l 8.254 8.252 c 0.554 0.554 1.446 0.554 2 0 0.554 -0.554 0.554 -1.446 0 -2 z" style="fill:#f95357;opacity:1;fill-opacity:1;stroke:none"/>
 <path d="m 33.25 13.33 c -0.361 0 -0.723 0.139 -1 0.416 l -8.254 8.254 l 2 2 8.254 -8.254 c 0.554 -0.554 0.554 -1.446 0 -2 -0.277 -0.277 -0.639 -0.416 -1 -0.416 z m -11.254 10.67 -8.254 8.252 c -0.554 0.554 -0.554 1.446 0 2 0.554 0.554 1.446 0.554 2 0 l 8.254 -8.252" style="fill:#45da26;opacity:1;fill-opacity:1;stroke:none"/>
</svg>
